24x24/actions/labplot-worksheet.svg

<svg xmlns="http://www.w3.org/2000/svg" viewBox="0 0 24 24" width="24" height="24">
  <defs id="defs3051">
    <style type="text/css" id="current-color-scheme">
      .ColorScheme-Text {
        color:#555e70;
      }
      </style>
  </defs>
  <g transform="translate(1,1)">
    <path style="fill:currentColor;fill-opacity:1;stroke:none" d="M 6 3 L 2 7 L 2 19 L 5 19 L 5 18 L 3 18 L 3 8 L 7 8 L 7 4 L 19 4 L 19 7 L 20 7 L 20 3 L 6 3 z M 14 7 L 9.9980469 11.001953 L 8.0019531 11.001953 L 8.0019531 12.001953 L 10.412109 12.001953 L 14.001953 8.4121094 L 16.125 10.535156 L 16.130859 10.53125 L 16.134766 10.535156 L 18.962891 7.7070312 C 18.965857 7.7120312 18.255859 7 18.255859 7 L 16.130859 9.125 L 14.003906 7 L 14.001953 7.0019531 L 14 7 z M 7 9 L 7 19 L 8 19 L 19 19 L 19 18.001953 L 19 18 L 19 16.867188 L 18.958984 16.828125 L 16.130859 14 L 16.126953 14.003906 L 16.121094 14 L 13.998047 16.123047 L 10.875 13 L 9.4609375 13 L 8 13 L 8 9 L 7 9 z M 8 14 L 10.460938 14 L 13.996094 17.535156 L 13.998047 17.533203 L 14 17.535156 L 16.126953 15.410156 L 18.251953 17.535156 L 18.734375 18 L 8 18 L 8 14 z " class="ColorScheme-Text"/>
  </g>
</svg>

<svg xmlns="http://www.w3.org/2000/svg" width="24" height="24"><path style="fill:currentColor;fill-opacity:1;stroke:none;color:#555e70" d="M6 3 2 7v12h3v-1H3V8h4V4h12v3h1V3H6zm8 4-4.002 4.002H8.002v1h2.41l3.59-3.59 2.123 2.123.006-.004.004.004 2.828-2.828c.003.005-.707-.707-.707-.707L16.13 9.125 14.004 7l-.002.002L14 7zM7 9v10h12v-2.133l-.041-.039L16.131 14l-.004.004-.006-.004-2.123 2.123L10.875 13H8V9H7zm1 5h2.46l3.536 3.535.002-.002.002.002 2.127-2.125 2.125 2.125.482.465H8v-4z" transform="translate(1 1)"/></svg>
